dist/assets/img/questions/6/backdrop_1200.svg

<svg width="646" height="306" viewBox="0 0 646 306" fill="none" xmlns="http://www.w3.org/2000/svg">
<g filter="url(#filter0_di_1419_49008)">
<path fill-rule="evenodd" clip-rule="evenodd" d="M579.283 186.973C572.827 181.153 573.302 171.673 575.441 163.248C577.38 155.614 577.577 147.409 575.689 138.571C564.489 86.1478 513.626 50.4475 369.244 32.8822C296.661 24.0519 143.065 24.3276 89.2888 58.355C25.4368 98.7582 21.7429 179.537 89.2888 218.568C148.616 252.85 389.738 265.381 460.646 242.147C494.718 230.983 528.235 217.235 550.479 198.933C555.001 195.212 561.347 194.454 566.657 196.925C577.501 201.97 591.16 205.798 605.647 204.089C605.81 204.07 605.851 203.853 605.706 203.776C596.852 199.138 587.122 194.041 579.283 186.973Z" fill="white"/>
</g>
<defs>
<filter id="filter0_di_1419_49008" x="0.00488281" y="0" width="645.79" height="306" filterUnits="userSpaceOnUse" color-interpolation-filters="sRGB">
<feFlood flood-opacity="0" result="BackgroundImageFix"/>
<feColorMatrix in="SourceAlpha" type="matrix" values="0 0 0 0 0 0 0 0 0 0 0 0 0 0 0 0 0 0 127 0" result="hardAlpha"/>
<feOffset dy="12"/>
<feGaussianBlur stdDeviation="20"/>
<feComposite in2="hardAlpha" operator="out"/>
<feColorMatrix type="matrix" values="0 0 0 0 0.909804 0 0 0 0 0.313726 0 0 0 0 0.470588 0 0 0 1 0"/>
<feBlend mode="normal" in2="BackgroundImageFix" result="effect1_dropShadow_1419_49008"/>
<feBlend mode="normal" in="SourceGraphic" in2="effect1_dropShadow_1419_49008" result="shape"/>
<feColorMatrix in="SourceAlpha" type="matrix" values="0 0 0 0 0 0 0 0 0 0 0 0 0 0 0 0 0 0 127 0" result="hardAlpha"/>
<feOffset dy="-4"/>
<feGaussianBlur stdDeviation="4"/>
<feComposite in2="hardAlpha" operator="arithmetic" k2="-1" k3="1"/>
<feColorMatrix type="matrix" values="0 0 0 0 0.909804 0 0 0 0 0.313726 0 0 0 0 0.470588 0 0 0 0.48 0"/>
<feBlend mode="normal" in2="shape" result="effect2_innerShadow_1419_49008"/>
</filter>
</defs>
</svg>

<svg width="646" height="306" viewBox="0 0 646 306" fill="none" xmlns="http://www.w3.org/2000/svg"><g filter="url(#filter0_di_1419_49008)"><path fill-rule="evenodd" clip-rule="evenodd" d="M579.283 186.973c-6.456-5.82-5.981-15.3-3.842-23.725 1.939-7.634 2.136-15.839.248-24.677-11.2-52.423-62.063-88.124-206.445-105.689-72.583-8.83-226.179-8.554-279.955 25.473-63.852 40.403-67.546 121.182 0 160.213 59.327 34.282 300.449 46.813 371.357 23.579 34.072-11.164 67.589-24.912 89.833-43.214 4.522-3.721 10.868-4.479 16.178-2.008 10.844 5.045 24.503 8.873 38.99 7.164a.167.167 0 00.059-.313c-8.854-4.638-18.584-9.735-26.423-16.803z" fill="#fff"/></g><defs><filter id="filter0_di_1419_49008" x=".005" y="0" width="645.79" height="306" filterUnits="userSpaceOnUse" color-interpolation-filters="sRGB"><feFlood flood-opacity="0" result="BackgroundImageFix"/><feColorMatrix in="SourceAlpha" values="0 0 0 0 0 0 0 0 0 0 0 0 0 0 0 0 0 0 127 0" result="hardAlpha"/><feOffset dy="12"/><feGaussianBlur stdDeviation="20"/><feComposite in2="hardAlpha" operator="out"/><feColorMatrix values="0 0 0 0 0.909804 0 0 0 0 0.313726 0 0 0 0 0.470588 0 0 0 1 0"/><feBlend in2="BackgroundImageFix" result="effect1_dropShadow_1419_49008"/><feBlend in="SourceGraphic" in2="effect1_dropShadow_1419_49008" result="shape"/><feColorMatrix in="SourceAlpha" values="0 0 0 0 0 0 0 0 0 0 0 0 0 0 0 0 0 0 127 0" result="hardAlpha"/><feOffset dy="-4"/><feGaussianBlur stdDeviation="4"/><feComposite in2="hardAlpha" operator="arithmetic" k2="-1" k3="1"/><feColorMatrix values="0 0 0 0 0.909804 0 0 0 0 0.313726 0 0 0 0 0.470588 0 0 0 0.48 0"/><feBlend in2="shape" result="effect2_innerShadow_1419_49008"/></filter></defs></svg>
